svgs/thin/igloo.svg

<svg xmlns="http://www.w3.org/2000/svg" viewBox="0 0 576 512"><!--! Font Awesome Pro 6.6.0 by @fontawesome - https://fontawesome.com License - https://fontawesome.com/license (Commercial License) Copyright 2024 Fonticons, Inc. --><path d="M560 320l0 16-96 0 0-144 64.1 0c20.4 38.1 31.9 81.7 31.9 128zM448 336l-69.5 0c-13.2-37.3-48.7-64-90.5-64s-77.4 26.7-90.5 64L128 336l0-144 192 0 16 0 112 0 0 144zm-65.3 16l65.3 0 16 0 96 0 0 64c0 26.5-21.5 48-48 48l-128 0 0-96c0-5.5-.5-10.8-1.3-16zM128 352l65.3 0c-.9 5.2-1.3 10.5-1.3 16l0 96L64 464c-26.5 0-48-21.5-48-48l0-64 96 0 16 0zm-16-16l-96 0 0-16c0-46.3 11.6-89.9 32-128.1l0 .1 64 0 0 144zM518.8 176L336 176l0-123.8C413 65.9 478.8 112.1 518.8 176zM288 48c10.8 0 21.5 .6 32 1.9L320 176 57.2 176C105.3 99.1 190.7 48 288 48zM64 480l128 0 192 0 128 0c35.3 0 64-28.7 64-64l0-96C576 160.9 447.1 32 288 32S0 160.9 0 320l0 96c0 35.3 28.7 64 64 64zM288 288c44.2 0 80 35.8 80 80l0 96-160 0 0-96c0-44.2 35.8-80 80-80z"/></svg>

<svg xmlns="http://www.w3.org/2000/svg" viewBox="0 0 576 512"><!--! Font Awesome Pro 6.4.2 by @fontawesome - https://fontawesome.com License - https://fontawesome.com/license (Commercial License) Copyright 2023 Fonticons, Inc. --><path d="M560 320v16H464V192h64.1c20.4 38.1 31.9 81.7 31.9 128zM448 336H378.5c-13.2-37.3-48.7-64-90.5-64s-77.4 26.7-90.5 64H128V192H320h16H448V336zm-65.3 16H448h16 96v64c0 26.5-21.5 48-48 48H384V368c0-5.5-.5-10.8-1.3-16zM128 352h65.3c-.9 5.2-1.3 10.5-1.3 16v96H64c-26.5 0-48-21.5-48-48V352h96 16zm-16-16H16V320c0-46.3 11.6-89.9 32-128.1v.1h64V336zM518.8 176H336V52.2C413 65.9 478.8 112.1 518.8 176zM288 48c10.8 0 21.5 .6 32 1.9V176H57.2C105.3 99.1 190.7 48 288 48zM64 480H192 384 512c35.3 0 64-28.7 64-64V320C576 160.9 447.1 32 288 32S0 160.9 0 320v96c0 35.3 28.7 64 64 64zM288 288c44.2 0 80 35.8 80 80v96H208V368c0-44.2 35.8-80 80-80z"/></svg>
